X:32
T:Green Hills of Tyrol. AJH.032
M:3/4
L:1/8
Q:1/4=120
S:A.J.Hughes MS
Z:Neil Brookes 2006
K:G
GA|B3 GBc|d3 gBe|dcAFDe|dBGDGA|!
B3GBc|d3eBe|dcADFA|G4:|!
|:d2|g3 gfe|edd2ed|dcc2dc|cBB2d2|!
g3gfe|edd2ed|d^cc2Bc|!
d3AfA|d3eBe|dcAFDF|G4:|!
|:DGA|B3GeG|B3cBA|G3DBD|G3DGA|!
B3GeG|B3dBA|G3DBD|G2z2d2|!
g3gfe|edd2ed|dcc2dc|cBB2d2|!
g3gfe|edd2e2|gfedef|g4:|

